X: 10923
T: GENERAL GARIBALDI -- Reel
C: By J.F. Fettes, D.M.
R: reel
B: K\"ohler's Violin Repository, v.1, 1885 p.92 #3
F: http://www.archive.org/details/klersviolinrepos01edin
Z: 2012 John Chambers <jc:trillian.mit.edu>
M: C|
L: 1/8
K: D
uA, |\
D2(FA) dcBA | BcdB AFDF | G2BG F2AF | GFED CECA, |\
D2(FA) dcBA | BcdB AFDF | (GA)BG (FA)dg | fdec d/d/d (d |] uA) |
d2fd (ad)fa | gfed cecA | d2fd (ad)fa | gfec d/d/d (dA) |\
d2fd (ad)fa | gfed cecA | BGGB AFFg | fdec d/d/d "_Fine."d |]

%%sep 2 1 500

